src/pos-icons/vuetify.svg

<svg height="24" viewBox="0 0 24 24" width="24" xmlns="http://www.w3.org/2000/svg"><path d="m12 11.64-4.08-9.64h8.16zm0 10.31-8.73-17.04h4.57l4.16 9.56 4.16-9.56h4.57z"/></svg>

<?xml version="1.0" encoding="UTF-8"?><!DOCTYPE svg PUBLIC "-//W3C//DTD SVG 1.1//EN" "http://www.w3.org/Graphics/SVG/1.1/DTD/svg11.dtd"><svg xmlns="http://www.w3.org/2000/svg" xmlns:xlink="http://www.w3.org/1999/xlink" version="1.1" id="mdi-vuetify" width="24" height="24" viewBox="0 0 24 24"><path d="M12,11.64L7.92,2H16.08L12,11.64M12,21.95L3.27,4.91H7.84L12,14.47L16.16,4.91H20.73L12,21.95Z" /></svg>
